X: 7
T: Up Sligo
R: jig
M: 6/8
L: 1/8
K: Emin
D|EBB BAG | FDF AFD | EBB Bcd | AGF E2D |EBB BAG | FDF ABc | ded BdB | AGF E2 :|A|Bee ede | fef dBA | Bee ede | fec d2A |Bee ede | fef dBA | B2B Bcd | AGF E2 :|


Tune 537	Setting 13484

